icons/op-export-bcf-24.svg

<svg width="24" height="24" viewBox="0 0 24 24" fill="none" xmlns="http://www.w3.org/2000/svg">
<path d="M18 7.6875L14.3756 4H6V20H18V7.6875ZM7.40102 18.5625V5.4375H13.797L16.599 8.3125V18.5625H7.40102Z" fill="black"/>
<path d="M8.70005 14.5367H9.6793C9.87315 14.5367 10.0174 14.5468 10.1121 14.5669C10.2079 14.5856 10.2931 14.6258 10.3678 14.6875C10.4435 14.7492 10.5065 14.8316 10.5566 14.9349C10.6068 15.0368 10.6318 15.1514 10.6318 15.2788C10.6318 15.4168 10.6006 15.5435 10.5382 15.6588C10.477 15.7741 10.3934 15.8606 10.2876 15.9182C10.4369 15.9705 10.5516 16.0597 10.6318 16.1857C10.712 16.3117 10.7521 16.4598 10.7521 16.6301C10.7521 16.7641 10.7259 16.8949 10.6736 17.0222C10.6223 17.1482 10.5516 17.2494 10.4614 17.3259C10.3722 17.4009 10.2619 17.4472 10.1305 17.4646C10.0481 17.4753 9.8492 17.482 9.53393 17.4847H8.70005V14.5367ZM9.19467 15.0274V15.7091H9.51888C9.71162 15.7091 9.83137 15.7057 9.87815 15.699C9.96282 15.687 10.0291 15.6521 10.077 15.5945C10.126 15.5355 10.1505 15.4584 10.1505 15.3632C10.1505 15.2721 10.1294 15.1983 10.0871 15.142C10.0458 15.0844 9.98401 15.0495 9.90157 15.0375C9.85254 15.0307 9.7116 15.0274 9.47877 15.0274L9.19467 15.0274ZM9.19467 16.1998V16.988H9.65256C9.83081 16.988 9.94389 16.982 9.99179 16.9699C10.0653 16.9538 10.1249 16.915 10.1706 16.8533C10.2174 16.7903 10.2408 16.7065 10.2408 16.602C10.2408 16.5135 10.223 16.4384 10.1873 16.3767C10.1517 16.315 10.0999 16.2701 10.0319 16.242C9.96506 16.2138 9.81912 16.1998 9.59408 16.1998H9.19467ZM12.739 16.4009L13.2186 16.5838C13.1451 16.9056 13.0226 17.1449 12.851 17.3017C12.6805 17.4573 12.4638 17.535 12.2009 17.535C11.8756 17.535 11.6083 17.4016 11.3988 17.1348C11.1894 16.8667 11.0847 16.5007 11.0847 16.0369C11.0847 15.5462 11.1899 15.1655 11.4005 14.8947C11.6111 14.6225 11.8879 14.4865 12.231 14.4865C12.5307 14.4865 12.7741 14.593 12.9613 14.8062C13.0727 14.9322 13.1562 15.1132 13.2119 15.3491L12.7223 15.4899C12.6934 15.3371 12.6326 15.2164 12.5402 15.1279C12.4488 15.0394 12.3374 14.9952 12.206 14.9952C12.0244 14.9952 11.8768 15.0736 11.7631 15.2305C11.6506 15.3873 11.5943 15.6414 11.5943 15.9926C11.5943 16.3653 11.65 16.6308 11.7615 16.789C11.8729 16.9471 12.0177 17.0262 12.1959 17.0262C12.3274 17.0262 12.4405 16.976 12.5351 16.8754C12.6298 16.7749 12.6978 16.6167 12.739 16.4009ZM13.6481 17.4847V14.5367H15.3275V15.0354H14.1427V15.7332H15.1654V16.2319H14.1427V17.4847H13.6481Z" fill="black"/>
</svg>

<svg xmlns="http://www.w3.org/2000/svg" width="24" height="24" viewBox="0 0 24 24"><path d="M18 7.688 14.376 4H6v16h12V7.688ZM7.401 18.562V5.438h6.396l2.802 2.874v10.25H7.401Z"/><path d="M8.7 14.537h.979c.194 0 .338.01.433.03a.568.568 0 0 1 .256.121.77.77 0 0 1 .264.591.781.781 0 0 1-.094.38.614.614 0 0 1-.25.259.648.648 0 0 1 .344.268.81.81 0 0 1 .12.444c0 .134-.026.265-.078.392a.775.775 0 0 1-.213.304.633.633 0 0 1-.331.139c-.082.01-.281.017-.596.02H8.7v-2.948Zm.495.49v.682h.324c.193 0 .312-.003.359-.01a.305.305 0 0 0 .199-.104.352.352 0 0 0 .073-.232.36.36 0 0 0-.063-.221.265.265 0 0 0-.185-.105 5.158 5.158 0 0 0-.423-.01h-.284Zm0 1.173v.788h.458c.178 0 .291-.006.339-.018a.296.296 0 0 0 .179-.117.417.417 0 0 0 .07-.251.438.438 0 0 0-.054-.225.307.307 0 0 0-.155-.135c-.067-.028-.213-.042-.438-.042h-.399Zm3.544.201.48.183c-.074.322-.196.561-.368.718a.928.928 0 0 1-.65.233.975.975 0 0 1-.802-.4c-.21-.268-.314-.634-.314-1.098 0-.491.105-.872.315-1.142.211-.272.488-.409.831-.409.3 0 .543.107.73.32.112.126.195.307.251.543l-.49.141a.648.648 0 0 0-.182-.362.46.46 0 0 0-.334-.133.526.526 0 0 0-.443.235c-.112.157-.169.411-.169.763 0 .372.056.638.167.796a.512.512 0 0 0 .435.237c.131 0 .245-.05.339-.151.095-.1.163-.258.204-.474Zm.909 1.084v-2.948h1.68v.498h-1.185v.698h1.022v.499h-1.022v1.253h-.495Z"/></svg>
